; generated by PrusaSlicer 2.5.0+win64 on 2023-05-15 at 05:48:10 UTC


;
;
; 

; external perimeters extrusion width = 0.45mm
; perimeters extrusion width = 0.45mm
; infill extrusion width = 0.45mm
; solid infill extrusion width = 0.45mm
; top infill extrusion width = 0.40mm
; first layer extrusion width = 0.42mm

M73 P0 R230
M73 Q0 S234
M201 X1000 Y1000 Z200 E5000 ; sets maximum accelerations, mm/sec^2
M203 X200 Y200 Z12 E120 ; sets maximum feedrates, mm / sec
M204 P1250 R1250 T1250 ; sets acceleration (P, T) and retract acceleration (R), mm/sec^2
M205 X8.00 Y8.00 Z0.40 E4.50 ; sets the jerk limits, mm/sec
M205 S0 T0 ; sets the minimum extruding and travel feed rate, mm/sec
M107
;TYPE:Custom
M862.3 P "MK3" ; printer model check
M862.1 P0.4 ; nozzle diameter check
M115 U3.12.2 ; tell printer latest fw version
G90 ; use absolute coordinates
M83 ; extruder relative mode
M104 S215 ; set extruder temp
M140 S60 ; set bed temp
M190 S60 ; wait for bed temp
M109 S215 ; wait for extruder temp
G28 W ; home all without mesh bed level
G80 ; mesh bed leveling

G1 Z0.2 F720
G1 Y-3 F1000 ; go outside print area
G92 E0
G1 X60 E9 F1000 ; intro line
G1 X100 E12.5 F1000 ; intro line

G92 E0
M221 S95

; Don't change E values below. Excessive value can damage the printer.

M907 E538 ; set extruder motor current
G21 ; set units to millimeters
G90 ; use absolute coordinates
M83 ; use relative distances for extrusion
M900 K0.05 ; Filament gcode LA 1.5
M900 K30 ; Filament gcode LA 1.0
M107
;LAYER_CHANGE
;Z:0.2
;HEIGHT:0.2
;BEFORE_LAYER_CHANGE
G92 E0.0
;0.2


M73 P0 R229
G1 E-.8 F2100
G1 Z.4 F720
;AFTER_LAYER_CHANGE
;0.2
G1 X50.857 Y29.312 F10800
G1 Z.2 F720
G1 E.8 F2100
M204 S800
;TYPE:Skirt/Brim
;WIDTH:0.42
G1 F600
G1 X52.068 Y27.533 E.06747
G1 X53.176 Y26.404 E.04958
G1 X53.822 Y25.87 E.02631
G1 X55.153 Y25.016 E.04958
G1 X55.902 Y24.638 E.02631
G1 X57.39 Y24.102 E.04958
G1 X58.205 Y23.901 E.02631
G1 X60.061 Y23.696 E.05857
G1 X135.149 Y22.953 E2.35444
G1 X189.939 Y22.957 E1.71788
G1 X191.795 Y23.161 E.05857
M73 Q0 S233
G1 X192.61 Y23.363 E.02631
G1 X194.098 Y23.899 E.04958
G1 X194.847 Y24.276 E.02631
G1 X196.178 Y25.13 E.04958
G1 X197.754 Y26.595 E.06747
G1 X198.443 Y27.459 E.03465
G1 X199.143 Y28.572 E.04123
G1 X199.622 Y29.568 E.03465
G1 X200.258 Y31.624 E.06747
G1 X200.462 Y33.481 E.05857
G1 X200.466 Y175.647 E4.45751
G1 X200.258 Y177.637 E.06274
G1 X199.622 Y179.693 E.06747
G1 X199.143 Y180.688 E.03465
G1 X197.932 Y182.467 E.06747
G1 X196.824 Y183.596 E.04958
G1 X196.178 Y184.13 E.02631
G1 X194.847 Y184.984 E.04958
G1 X194.098 Y185.362 E.02631
G1 X192.61 Y185.898 E.04958
G1 X191.795 Y186.099 E.02631
G1 X189.829 Y186.307 E.06201
G1 X114.851 Y187.047 E2.35099
G1 X60.195 Y187.047 E1.7137
G1 X58.205 Y186.839 E.06274
G1 X56.149 Y186.203 E.06747
G1 X55.153 Y185.724 E.03465
G1 X53.374 Y184.513 E.06747
G1 X52.246 Y183.405 E.04958
G1 X51.711 Y182.758 E.02631
G1 X50.857 Y181.428 E.04958
G1 X50.48 Y180.678 E.02631
G1 X49.943 Y179.191 E.04958
G1 X49.742 Y178.376 E.02631
G1 X49.534 Y176.386 E.06274
G1 X49.534 Y34.353 E4.45333
G1 X49.742 Y32.363 E.06274
M73 P0 R228
G1 X50.378 Y30.307 E.06747
G1 X50.831 Y29.366 E.03277
M204 S1000
;WIPE_START
G1 F8640
G1 X52.068 Y27.533 E-.51056
G1 X52.825 Y26.762 E-.24944
;WIPE_END
G1 E-.04 F2100
G1 Z.6 F720
G1 X53.148 Y30.668 F10800
G1 Z.2 F720
G1 E.8 F2100
M204 S800
G1 F600
G1 X53.963 Y29.43 E.04645
G1 X54.995 Y28.348 E.04689
G1 X56.627 Y27.249 E.06169
G1 X58.468 Y26.575 E.06149
G1 X60.209 Y26.356 E.05502
G1 X75.23 Y26.36 E.47095
G1 X76.249 Y26.554 E.03255
G1 X77.228 Y26.969 E.03332
G1 X78.353 Y27.866 E.0451
G1 X79.22 Y29.148 E.04854
G1 X79.633 Y30.6 E.04735
G1 X79.653 Y55.021 E.76569
G1 X79.772 Y55.942 E.02913
G1 X80.004 Y56.86 E.02969
G1 X80.345 Y57.743 E.02968
G1 X80.79 Y58.579 E.02968
G1 X81.331 Y59.356 E.02969
G1 X81.962 Y60.062 E.02968
G1 X82.673 Y60.687 E.02968
G1 X83.451 Y61.221 E.0296
G1 X84.303 Y61.664 E.03011
G1 X85.178 Y61.995 E.02933
G1 X86.098 Y62.22 E.02969
G1 X87.038 Y62.334 E.02968
G1 X87.984 Y62.334 E.02969
G1 X88.924 Y62.22 E.02968
G1 X89.844 Y61.995 E.02969
G1 X90.729 Y61.66 E.02968
G1 X91.569 Y61.222 E.02968
G1 X92.349 Y60.687 E.02968
G1 X93.06 Y60.062 E.02968
G1 X93.691 Y59.356 E.02968
G1 X94.232 Y58.579 E.02968
G1 X94.626 Y57.839 E.0263
G1 X95.018 Y56.859 E.03308
G1 X95.25 Y55.942 E.02965
G1 X95.369 Y55.021 E.02912
G1 X95.369 Y30.745 E.76117
G1 X95.848 Y29.043 E.05542
G1 X96.421 Y28.153 E.0332
G1 X97.171 Y27.405 E.03321
G1 X98.128 Y26.804 E.03542
G1 X99.741 Y26.356 E.05249
G1 X114.807 Y26.356 E.47236
M73 Q0 S232
G1 X116.195 Y26.494 E.04375
G1 X118.245 Y27.175 E.06771
G1 X120.06 Y28.378 E.06827
G1 X121.266 Y29.699 E.05611
G1 X122.025 Y30.973 E.04649
G1 X122.538 Y32.344 E.04588
G1 X122.825 Y34.348 E.06348
G1 X122.825 Y176.391 E4.45366
G1 X122.537 Y178.397 E.06352
G1 X122.009 Y179.799 E.04699
G1 X121.251 Y181.064 E.04624
G1 X119.508 Y182.808 E.07731
G1 X118.236 Y183.57 E.04647
G1 X116.84 Y184.095 E.04676
G1 X114.833 Y184.383 E.0636
G1 X59.977 Y184.368 E1.71996
G1 X58.176 Y184.093 E.05711
G1 X56.733 Y183.544 E.04843
G1 X55.393 Y182.714 E.0494
G1 X53.771 Y181.064 E.07254
G1 X53.011 Y179.795 E.04639
G1 X52.485 Y178.399 E.04676
G1 X52.198 Y176.391 E.06359
G1 X52.198 Y34.374 E4.45285
G1 X52.337 Y32.975 E.0441
G1 X53.128 Y30.724 E.07478
M204 S1000
G1 X53.475 Y30.856 F10800
M204 S800
G1 F600
G1 X54.268 Y29.652 E.04519
G1 X55.253 Y28.624 E.04464
G1 X56.817 Y27.576 E.05906
G1 X58.576 Y26.936 E.05868
G1 X60.221 Y26.733 E.05194
G1 X75.211 Y26.737 E.47002
G1 X76.157 Y26.92 E.03021
G1 X77.054 Y27.305 E.03062
G1 X78.093 Y28.141 E.04179
G1 X78.889 Y29.332 E.04491
G1 X79.263 Y30.676 E.04376
G1 X79.276 Y55.045 E.76407
G1 X79.401 Y56.013 E.03059
M73 P0 R227
G1 X79.644 Y56.975 E.03111
G1 X80.002 Y57.9 E.03111
G1 X80.467 Y58.776 E.03111
G1 X81.035 Y59.59 E.03111
G1 X81.696 Y60.33 E.03111
G1 X82.441 Y60.985 E.03111
G1 X83.257 Y61.545 E.03103
G1 X84.149 Y62.009 E.03153
G1 X85.066 Y62.355 E.03075
G1 X86.03 Y62.592 E.03111
G1 X87.015 Y62.711 E.0311
G1 X88.007 Y62.711 E.03111
G1 X88.992 Y62.592 E.0311
G1 X89.956 Y62.355 E.03111
G1 X90.884 Y62.005 E.03111
G1 X91.763 Y61.546 E.03111
G1 X92.581 Y60.985 E.0311
G1 X93.326 Y60.33 E.03111
G1 X93.987 Y59.59 E.03111
G1 X94.555 Y58.776 E.03111
G1 X94.969 Y57.998 E.02765
G1 X95.377 Y56.976 E.03451
G1 X95.621 Y56.013 E.03114
G1 X95.746 Y55.045 E.03059
G1 X95.746 Y30.77 E.76112
G1 X96.181 Y29.224 E.05038
G1 X96.727 Y28.374 E.03166
G1 X97.422 Y27.687 E.03064
G1 X98.258 Y27.159 E.03099
G1 X99.768 Y26.733 E.0492
G1 X114.797 Y26.733 E.47123
G1 X116.136 Y26.867 E.0422
G1 X118.101 Y27.524 E.06496
G1 X119.797 Y28.65 E.06381
G1 X120.952 Y29.91 E.0536
G1 X121.678 Y31.122 E.04428
G1 X122.177 Y32.457 E.04469
G1 X122.447 Y34.361 E.06031
G1 X122.447 Y176.378 E4.45284
G1 X122.177 Y178.284 E.06036
M73 P1 R227
M73 Q1 S231
G1 X121.676 Y179.62 E.04474
G1 X120.939 Y180.851 E.04497
G1 X119.294 Y182.496 E.07297
G1 X118.057 Y183.237 E.0452
G1 X116.728 Y183.735 E.04451
G1 X114.819 Y184.006 E.06044
G1 X60.019 Y183.993 E1.71823
G1 X58.291 Y183.734 E.05477
G1 X56.884 Y183.198 E.04721
G1 X55.612 Y182.406 E.047
G1 X54.083 Y180.851 E.06835
G1 X53.344 Y179.616 E.04514
G1 X52.846 Y178.286 E.04451
G1 X52.575 Y176.378 E.06043
G1 X52.575 Y34.384 E4.45214
G1 X52.71 Y33.035 E.04251
G1 X53.455 Y30.913 E.07052
M204 S1000
G1 X53.803 Y31.043 F10800
M204 S800
G1 F600
G1 X54.552 Y29.9 E.04284
G1 X55.511 Y28.9 E.04343
G1 X57.007 Y27.902 E.05639
G1 X58.684 Y27.299 E.05588
G1 X60.232 Y27.11 E.04889
G1 X75.192 Y27.114 E.46908
G1 X76.064 Y27.286 E.02784
G1 X76.88 Y27.64 E.0279
G1 X77.832 Y28.414 E.03848
G1 X78.557 Y29.513 E.04128
G1 X78.893 Y30.75 E.04019
G1 X78.899 Y55.069 E.76251
G1 X79.03 Y56.083 E.03206
G1 X79.284 Y57.089 E.03253
G1 X79.658 Y58.057 E.03253
G1 X80.145 Y58.973 E.03253
G1 X80.738 Y59.824 E.03253
G1 X81.43 Y60.598 E.03253
G1 X82.209 Y61.283 E.03253
G1 X83.062 Y61.869 E.03246
G1 X83.995 Y62.354 E.03296
G1 X84.955 Y62.716 E.03217
G1 X85.962 Y62.963 E.03253
G1 X86.992 Y63.088 E.03253
G1 X88.03 Y63.088 E.03253
G1 X89.06 Y62.963 E.03253
G1 X90.067 Y62.716 E.03253
G1 X91.038 Y62.35 E.03253
G1 X91.958 Y61.87 E.03253
G1 X92.813 Y61.283 E.03253
G1 X93.592 Y60.598 E.03253
G1 X94.284 Y59.824 E.03253
G1 X94.877 Y58.973 E.03253
G1 X95.297 Y58.184 E.02804
G1 X95.364 Y58.057 E.00449
G1 X95.738 Y57.089 E.03253
G1 X95.993 Y56.083 E.03253
G1 X96.123 Y55.069 E.03206
G1 X96.123 Y30.796 E.76107
G1 X96.513 Y29.404 E.04534
G1 X97.032 Y28.596 E.03009
G1 X97.672 Y27.971 E.02805
G1 X98.388 Y27.514 E.02665
G1 X99.795 Y27.11 E.04587
G1 X114.788 Y27.11 E.47009
G1 X116.078 Y27.241 E.04066
G1 X117.915 Y27.853 E.06071
G1 X119.536 Y28.922 E.06089
G1 X120.639 Y30.12 E.05106
G1 X121.345 Y31.3 E.04312
G1 X121.817 Y32.569 E.04243
G1 X122.07 Y34.374 E.05717
G1 X122.07 Y176.365 E4.45202
G1 X121.816 Y178.171 E.05719
M73 P1 R226
G1 X121.329 Y179.472 E.04354
G1 X120.628 Y180.636 E.04262
G1 X119.08 Y182.185 E.06867
G1 X117.909 Y182.89 E.04286
G1 X116.615 Y183.374 E.04331
G1 X114.806 Y183.629 E.05727
G1 X60.06 Y183.618 E1.71653
G1 X58.405 Y183.374 E.05245
M73 Q1 S230
G1 X57.066 Y182.867 E.04488
G1 X55.864 Y182.124 E.04433
G1 X54.395 Y180.637 E.06555
G1 X53.691 Y179.467 E.04281
G1 X53.206 Y178.174 E.04331
G1 X52.952 Y176.365 E.05726
G1 X52.952 Y34.393 E4.45143
G1 X53.083 Y33.095 E.04092
G1 X53.783 Y31.1 E.06629
M204 S1000
G1 X54.131 Y31.231 F10800
M204 S800
G1 F600
G1 X54.858 Y30.122 E.04157
G1 X55.768 Y29.177 E.04113
G1 X57.196 Y28.229 E.05374
G1 X58.79 Y27.661 E.05307
G1 X60.243 Y27.487 E.04587
G1 X75.173 Y27.491 E.46813
G1 X75.968 Y27.651 E.02544
G1 X76.703 Y27.975 E.02518
G1 X77.57 Y28.687 E.03516
G1 X78.224 Y29.692 E.03763
G1 X78.522 Y30.822 E.03663
G1 X78.522 Y55.093 E.76102
G1 X78.658 Y56.154 E.03353
G1 X78.924 Y57.204 E.03396
G1 X79.314 Y58.214 E.03395
G1 X79.823 Y59.17 E.03395
G1 X80.442 Y60.059 E.03395
G1 X81.163 Y60.866 E.03395
G1 X81.977 Y61.581 E.03395
G1 X82.868 Y62.193 E.03389
G1 X83.841 Y62.699 E.03438
G1 X84.843 Y63.077 E.03358
G1 X85.895 Y63.335 E.03396
G1 X86.97 Y63.465 E.03395
G1 X88.053 Y63.465 E.03396
G1 X89.127 Y63.335 E.03395
G1 X90.179 Y63.077 E.03395
G1 X91.192 Y62.695 E.03395
G1 X92.153 Y62.194 E.03395
G1 X93.045 Y61.581 E.03395
G1 X93.859 Y60.866 E.03395
G1 X94.58 Y60.059 E.03395
G1 X95.199 Y59.17 E.03395
G1 X95.63 Y58.361 E.02875
G1 X95.708 Y58.214 E.0052
G1 X96.098 Y57.204 E.03395
G1 X96.364 Y56.154 E.03395
G1 X96.5 Y55.093 E.03353
G1 X96.5 Y30.822 E.76102
G1 X96.846 Y29.584 E.0403
G1 X97.337 Y28.819 E.02851
G1 X97.92 Y28.254 E.02544
G1 X98.521 Y27.868 E.0224
G1 X99.822 Y27.487 E.0425
G1 X114.778 Y27.487 E.46893
G1 X116.018 Y27.614 E.03909
G1 X117.771 Y28.202 E.05798
G1 X119.274 Y29.195 E.05648
G1 X120.326 Y30.332 E.04855
G1 X120.998 Y31.448 E.04086
G1 X121.456 Y32.681 E.04122
G1 X121.693 Y34.387 E.05402
G1 X121.693 Y176.352 E4.45121
G1 X121.456 Y178.059 E.05404
M73 P1 R225
G1 X120.997 Y179.292 E.04125
G1 X120.317 Y180.422 E.04135
G1 X118.866 Y181.874 E.06437
G1 X117.729 Y182.558 E.04158
G1 X116.503 Y183.014 E.04102
G1 X114.794 Y183.252 E.05412
G1 X60.101 Y183.243 E1.71486
G1 X58.519 Y183.014 E.05012
G1 X57.249 Y182.537 E.04252
G1 X56.081 Y181.815 E.04304
G1 X54.706 Y180.423 E.06134
G1 X54.023 Y179.288 E.04155
G1 X53.567 Y178.062 E.04102
G1 X53.329 Y176.352 E.05412
G1 X53.329 Y34.403 E4.45072
G1 X53.456 Y33.155 E.03932
M73 Q1 S229
G1 X54.111 Y31.287 E.06207
M204 S1000
G1 X54.459 Y31.418 F10800
M204 S800
G1 F600
G1 X55.142 Y30.371 E.03919
G1 X56.025 Y29.453 E.03991
G1 X57.384 Y28.557 E.05104
G1 X58.895 Y28.024 E.05026
G1 X60.253 Y27.864 E.04287
G1 X75.155 Y27.868 E.46721
G1 X75.835 Y28.005 E.02177
G1 X76.527 Y28.309 E.02369
G1 X77.307 Y28.958 E.03181
G1 X77.868 Y29.82 E.03225
G1 X78.145 Y30.847 E.03337
G1 X78.145 Y55.118 E.76098
G1 X78.287 Y56.225 E.035
G1 X78.564 Y57.319 E.03538
G1 X78.971 Y58.371 E.03538
G1 X79.5 Y59.367 E.03538
G1 X80.146 Y60.293 E.03538
G1 X80.897 Y61.134 E.03538
G1 X81.745 Y61.879 E.03538
G1 X82.674 Y62.517 E.03532
G1 X83.686 Y63.044 E.0358
G1 X84.731 Y63.438 E.035
G1 X85.827 Y63.707 E.03538
G1 X86.947 Y63.842 E.03537
G1 X88.075 Y63.842 E.03538
G1 X89.195 Y63.707 E.03537
G1 X90.291 Y63.438 E.03538
G1 X91.347 Y63.04 E.03538
G1 X92.347 Y62.518 E.03538
G1 X93.277 Y61.879 E.03537
G1 X94.125 Y61.134 E.03538
G1 X94.876 Y60.293 E.03538
G1 X95.522 Y59.367 E.03538
M73 P2 R225
G1 X96.051 Y58.371 E.03538
G1 X96.458 Y57.318 E.03538
G1 X96.735 Y56.225 E.03538
G1 X96.877 Y55.118 E.035
G1 X96.877 Y30.847 E.76098
G1 X97.178 Y29.764 E.03526
G1 X97.642 Y29.042 E.0269
G1 X98.168 Y28.539 E.02283
G1 X98.656 Y28.221 E.01825
G1 X99.85 Y27.864 E.03907
G1 X114.768 Y27.864 E.46775
G1 X115.959 Y27.986 E.03754
G1 X117.585 Y28.531 E.05376
M73 Q2 S229
G1 X119.014 Y29.469 E.05359
G1 X120.013 Y30.543 E.04599
G1 X120.665 Y31.627 E.03968
G1 X121.095 Y32.792 E.03891
G1 X121.316 Y34.4 E.0509
G1 X121.316 Y176.339 E4.45041
G1 X121.095 Y177.947 E.05089
G1 X120.65 Y179.144 E.04003
G1 X120.006 Y180.207 E.03897
G1 X118.651 Y181.563 E.06012
G1 X117.581 Y182.211 E.0392
G1 X116.391 Y182.653 E.0398
G1 X114.781 Y182.875 E.05097
G1 X60.14 Y182.868 E1.71322
G1 X58.632 Y182.653 E.04778
G1 X57.399 Y182.19 E.04128
G1 X56.299 Y181.507 E.0406
M73 P2 R224
G1 X55.017 Y180.209 E.0572
G1 X54.37 Y179.14 E.03919
G1 X53.928 Y177.95 E.0398
G1 X53.706 Y176.339 E.05097
G1 X53.706 Y34.412 E4.45002
G1 X53.828 Y33.216 E.03772
G1 X54.44 Y31.474 E.05787
M204 S1000
G1 X54.788 Y31.605 F10800
M204 S800
G1 F600
G1 X55.448 Y30.592 E.03791
G1 X56.281 Y29.731 E.03755
G1 X57.571 Y28.885 E.04836
G1 X58.999 Y28.387 E.04745
G1 X60.264 Y28.242 E.03991
G1 X75.135 Y28.245 E.46627
G1 X75.738 Y28.369 E.01932
M73 Q2 S228
G1 X76.348 Y28.642 E.02093
G1 X77.041 Y29.227 E.02843
G1 X77.535 Y29.997 E.0287
G1 X77.768 Y30.872 E.02837
G1 X77.768 Y55.142 E.76097
G1 X77.916 Y56.295 E.03647
G1 X78.204 Y57.433 E.0368
G1 X78.627 Y58.528 E.0368
G1 X79.178 Y59.564 E.0368
G1 X79.849 Y60.527 E.0368
G1 X80.631 Y61.402 E.0368
G1 X81.513 Y62.178 E.0368
G1 X82.479 Y62.841 E.03675
G1 X83.532 Y63.389 E.03723
G1 X84.619 Y63.799 E.03642
G1 X85.759 Y64.078 E.0368
G1 X86.924 Y64.219 E.0368
G1 X88.098 Y64.219 E.0368
G1 X89.263 Y64.078 E.0368
G1 X90.403 Y63.799 E.0368
G1 X91.501 Y63.384 E.0368
G1 X92.542 Y62.841 E.0368
G1 X93.509 Y62.178 E.0368
G1 X94.391 Y61.402 E.0368
G1 X95.173 Y60.527 E.0368
G1 X95.844 Y59.564 E.0368
G1 X96.395 Y58.528 E.0368
G1 X96.818 Y57.433 E.0368
G1 X97.106 Y56.295 E.0368
G1 X97.254 Y55.142 E.03647
G1 X97.254 Y30.872 E.76095
G1 X97.511 Y29.944 E.03022
G1 X97.947 Y29.266 E.02526
G1 X98.415 Y28.824 E.0202
G1 X98.794 Y28.573 E.01424
G1 X99.879 Y28.242 E.03557
G1 X114.758 Y28.242 E.46655
G1 X115.9 Y28.359 E.03598
G1 X117.4 Y28.86 E.04958
G1 X118.755 Y29.743 E.05071
G1 X119.701 Y30.755 E.04344
G1 X120.318 Y31.775 E.03737
G1 X120.734 Y32.903 E.03769
G1 X120.939 Y34.412 E.04777
G1 X120.939 Y176.327 E4.44962
G1 X120.734 Y177.837 E.04777
G1 X120.318 Y178.964 E.03769
G1 X119.696 Y179.993 E.03768
G1 X118.436 Y181.253 E.05586
G1 X117.402 Y181.879 E.03791
G1 X116.281 Y182.292 E.03746
G1 X114.768 Y182.498 E.04786
G1 X60.179 Y182.493 E1.7116
G1 X58.743 Y182.293 E.04545
G1 X57.581 Y181.859 E.03891
G1 X56.55 Y181.225 E.03793
G1 X55.328 Y179.994 E.05438
G1 X54.702 Y178.96 E.0379
G1 X54.289 Y177.839 E.03746
G1 X54.083 Y176.327 E.04785
G1 X54.083 Y34.422 E4.44932
G1 X54.201 Y33.277 E.03611
M73 P2 R223
G1 X54.768 Y31.661 E.05368
M204 S1000
G1 X55.116 Y31.79 F10800
M204 S800
G1 F600
G1 X55.732 Y30.841 E.03549
G1 X56.537 Y30.009 E.0363
G1 X57.756 Y29.214 E.04563
G1 X59.102 Y28.75 E.04463
G1 X60.274 Y28.619 E.03698
G1 X75.114 Y28.622 E.46531
G1 X75.639 Y28.734 E.01681
G1 X76.166 Y28.973 E.01817
G1 X76.774 Y29.494 E.0251
G1 X77.179 Y30.125 E.02351
G1 X77.391 Y30.898 E.0251
G1 X77.391 Y55.166 E.76092
G1 X77.545 Y56.366 E.03794
G1 X77.845 Y57.548 E.03822
G1 X78.284 Y58.685 E.03822
G1 X78.856 Y59.761 E.03822
G1 X79.553 Y60.761 E.03822
G1 X80.365 Y61.671 E.03822
G1 X81.281 Y62.476 E.03822
G1 X82.285 Y63.164 E.03818
G1 X83.378 Y63.734 E.03865
G1 X84.507 Y64.159 E.03783
G1 X85.691 Y64.45 E.03822
G1 X86.901 Y64.596 E.03822
G1 X88.121 Y64.596 E.03822
G1 X89.331 Y64.45 E.03822
