; generated by PrusaSlicer 2.5.0+win64 on 2023-05-15 at 06:22:30 UTC


;
;
; 

; external perimeters extrusion width = 0.60mm
; perimeters extrusion width = 0.50mm
; infill extrusion width = 0.50mm
; solid infill extrusion width = 0.50mm
; top infill extrusion width = 0.45mm
; first layer extrusion width = 0.42mm

M73 P0 R133
M73 Q0 S134
M201 X1000 Y1000 Z200 E5000 ; sets maximum accelerations, mm/sec^2
M203 X200 Y200 Z12 E120 ; sets maximum feedrates, mm / sec
M204 P1250 R1250 T1250 ; sets acceleration (P, T) and retract acceleration (R), mm/sec^2
M205 X8.00 Y8.00 Z0.40 E4.50 ; sets the jerk limits, mm/sec
M205 S0 T0 ; sets the minimum extruding and travel feed rate, mm/sec
M107
;TYPE:Custom
M862.3 P "MK3" ; printer model check
M862.1 P0.4 ; nozzle diameter check
M115 U3.12.2 ; tell printer latest fw version
G90 ; use absolute coordinates
M83 ; extruder relative mode
M104 S215 ; set extruder temp
M140 S60 ; set bed temp
M190 S60 ; wait for bed temp
M109 S215 ; wait for extruder temp
G28 W ; home all without mesh bed level
G80 ; mesh bed leveling

G1 Z0.2 F720
G1 Y-3 F1000 ; go outside print area
G92 E0
G1 X60 E9 F1000 ; intro line
G1 X100 E12.5 F1000 ; intro line

G92 E0
M221 S95

; Don't change E values below. Excessive value can damage the printer.

M907 E538 ; set extruder motor current
G21 ; set units to millimeters
G90 ; use absolute coordinates
M83 ; use relative distances for extrusion
M900 K0.05 ; Filament gcode LA 1.5
M900 K30 ; Filament gcode LA 1.0
M107
;LAYER_CHANGE
;Z:0.2
;HEIGHT:0.2
;BEFORE_LAYER_CHANGE
G92 E0.0
;0.2


G1 E-.8 F2100
G1 Z.4 F720
;AFTER_LAYER_CHANGE
;0.2
G1 X62.565 Y43.213 F10800
G1 Z.2 F720
G1 E.8 F2100
M204 S800
;TYPE:Skirt/Brim
;WIDTH:0.42
G1 F1200
G1 X63.618 Y42.346 E.04278
G1 X64.517 Y42.161 E.02876
G1 X65.53 Y42.152 E.03177
G1 X184.588 Y42.152 E3.73299
G1 X186.269 Y42.848 E.05704
G1 X187.25 Y43.829 E.04348
G1 X187.946 Y45.51 E.05704
G1 X187.946 Y164.568 E3.73299
G1 X187.937 Y165.582 E.03178
G1 X187.533 Y166.885 E.04278
G1 X186.479 Y167.752 E.04278
G1 X185.582 Y167.937 E.02874
G1 X184.568 Y167.946 E.03178
G1 X66.489 Y167.946 E3.70229
G1 X65.488 Y167.937 E.03138
G1 X63.829 Y167.24 E.05641
G1 X62.858 Y166.269 E.04308
G1 X62.161 Y164.61 E.05641
G1 X62.152 Y45.53 E3.73367
G1 X62.161 Y44.517 E.03177
G1 X62.547 Y43.271 E.0409
M204 S1000
; printing object tmp6k7xpaor.obj id:0 copy 0
;WIPE_START
G1 F8640
G1 X63.618 Y42.346 E-.32671
G1 X64.517 Y42.161 E-.21181
G1 X65.476 Y42.153 E-.22148
;WIPE_END
G1 E-.04 F2100
G1 Z.6 F720
G1 X98.62 Y131.873 F10800
G1 Z.2 F720
G1 E.8 F2100
M204 S800
;TYPE:Perimeter
;WIDTH:0.419999
G1 F1200
G1 X98.639 Y131.892 E.00086
G1 X98.639 Y132.524 E.01981
G1 X98.705 Y132.778 E.00822
G1 X98.698 Y164.738 E1.00208
G1 X98.442 Y164.738 E.00801
G1 X98.211 Y164.782 E.00737
G1 X65.836 Y164.773 E1.0151
G1 X65.325 Y164.262 E.02264
G1 X65.316 Y132.03 E1.01061
G1 X65.36 Y131.417 E.01928
M73 Q0 S133
G1 X65.72 Y131.393 E.01132
G1 X97.32 Y131.393 E.99079
G1 X97.574 Y131.459 E.00822
G1 X98.206 Y131.459 E.01981
G1 X98.577 Y131.831 E.01647
M204 S1000
G1 X98.886 Y131.606 F10800
M204 S800
;TYPE:External perimeter
G1 F1200
G1 X99.016 Y131.736 E.00576
G1 X99.016 Y132.524 E.02471
G1 X99.082 Y132.756 E.00755
G1 X99.082 Y164.484 E.99482
G1 X99.064 Y165.115 E.01979
G1 X98.389 Y165.115 E.02115
G1 X98.296 Y165.159 E.00324
G1 X65.68 Y165.15 E1.02265
G1 X64.948 Y164.418 E.03243
G1 X64.939 Y131.802 E1.02265
G1 X64.983 Y131.709 E.00324
G1 X64.983 Y131.04 E.02098
G1 X65.661 Y131.016 E.02127
G1 X97.342 Y131.016 E.99334
G1 X97.574 Y131.082 E.00755
G1 X98.362 Y131.082 E.02471
G1 X98.844 Y131.564 E.02137
M204 S1000
G1 X98.863 Y131.789 F10800
;WIPE_START
G1 F8640
G1 X99.016 Y131.736 E-.05625
G1 X99.016 Y132.524 E-.18197
G1 X99.082 Y132.756 E-.05562
G1 X99.082 Y134.775 E-.46616
;WIPE_END
G1 E-.04 F2100
G1 Z.6 F720
G1 X92.865 Y160.312 F10800
G1 Z.2 F720
G1 E.8 F2100
M204 S800
;TYPE:Perimeter
G1 F1200
G1 X92.733 Y160.367 E.00449
G1 X92.548 Y160.398 E.00589
G1 X70.531 Y160.398 E.69032
G1 X70.104 Y160.35 E.01348
M73 P0 R132
G1 X69.884 Y160.214 E.0081
G1 X69.748 Y159.994 E.0081
G1 X69.7 Y159.567 E.01349
G1 X69.7 Y137.551 E.6903
G1 X69.826 Y137.085 E.01512
G1 X69.914 Y136.923 E.00579
G1 X70.131 Y136.752 E.00867
G1 X70.362 Y136.702 E.0074
G1 X92.62 Y136.702 E.69791
G1 X92.913 Y136.784 E.00954
G1 X93.232 Y137.083 E.01369
G1 X93.374 Y137.328 E.00888
G1 X93.394 Y137.48 E.0048
G1 X93.394 Y159.736 E.69782
G1 X93.345 Y159.966 E.0074
G1 X93.175 Y160.183 E.00864
G1 X92.921 Y160.289 E.00864
M204 S1000
G1 X92.944 Y159.885 F10800
M204 S800
;TYPE:External perimeter
G1 F1200
G1 X92.548 Y160.021 E.01315
G1 X70.531 Y160.021 E.69031
G1 X70.184 Y159.973 E.011
G1 X70.098 Y159.847 E.00479
G1 X70.077 Y159.567 E.0088
G1 X70.077 Y137.551 E.6903
G1 X70.212 Y137.153 E.01318
G1 X70.362 Y137.079 E.00522
G1 X92.62 Y137.079 E.69791
G1 X92.755 Y137.136 E.00457
G1 X93.01 Y137.429 E.0122
G1 X93.017 Y137.48 E.0016
G1 X93.017 Y159.736 E.69782
G1 X92.971 Y159.831 E.00333
M204 S1000
G1 X93.032 Y160.275 F10800
;WIPE_START
G1 F8640
G1 X92.548 Y160.021 E-.1071
G1 X89.72 Y160.021 E-.6529
;WIPE_END
G1 E-.04 F2100
G1 Z.6 F720
G1 X98.528 Y132.183 F10800
G1 Z.2 F720
G1 E.8 F2100
M204 S800
;TYPE:Solid infill
;WIDTH:0.422071
G1 F1200
G1 X98.086 Y131.741 E.0197
G1 X97.544 Y131.735 E.0171
G1 X98.363 Y132.554 E.0365
G1 X98.364 Y132.646 E.00291
G1 X98.423 Y132.825 E.00595
G1 X98.422 Y133.15 E.01023
G1 X96.948 Y131.675 E.06574
G1 X96.412 Y131.675 E.0169
G1 X98.422 Y133.686 E.08964
G1 X98.422 Y134.222 E.0169
G1 X95.876 Y131.675 E.11355
G1 X95.339 Y131.675 E.0169
G1 X98.422 Y134.758 E.13745
G1 X98.422 Y135.295 E.0169
G1 X94.803 Y131.675 E.16136
G1 X94.267 Y131.675 E.0169
G1 X98.422 Y135.831 E.18526
G1 X98.422 Y136.367 E.0169
G1 X93.731 Y131.675 E.20917
G1 X93.195 Y131.675 E.0169
G1 X98.422 Y136.903 E.23307
G1 X98.422 Y137.439 E.0169
G1 X92.658 Y131.675 E.25698
G1 X92.122 Y131.675 E.0169
G1 X98.422 Y137.975 E.28088
G1 X98.422 Y138.512 E.0169
G1 X91.586 Y131.675 E.30479
G1 X91.05 Y131.675 E.0169
G1 X98.422 Y139.048 E.32869
G1 X98.422 Y139.584 E.0169
G1 X90.514 Y131.675 E.3526
G1 X89.977 Y131.675 E.0169
G1 X98.422 Y140.12 E.3765
G1 X98.422 Y140.656 E.0169
G1 X89.441 Y131.675 E.40041
G1 X88.905 Y131.675 E.0169
G1 X98.422 Y141.192 E.42431
G1 X98.422 Y141.729 E.0169
G1 X88.369 Y131.675 E.44822
G1 X87.833 Y131.675 E.0169
G1 X92.577 Y136.42 E.21152
G1 X92.853 Y136.451 E.00876
G1 X93.06 Y136.541 E.00713
G1 X93.221 Y136.669 E.00647
G1 X93.437 Y136.889 E.00973
G1 X93.56 Y137.048 E.00636
G1 X93.647 Y137.252 E.00698
G1 X93.677 Y137.52 E.0085
G1 X98.422 Y142.265 E.21154
G1 X98.422 Y142.801 E.0169
G1 X93.677 Y138.056 E.21154
G1 X93.677 Y138.592 E.0169
G1 X98.422 Y143.337 E.21154
G1 X98.422 Y143.873 E.0169
G1 X93.677 Y139.129 E.21154
G1 X93.677 Y139.665 E.0169
G1 X98.422 Y144.409 E.21154
G1 X98.422 Y144.946 E.0169
G1 X93.677 Y140.201 E.21154
G1 X93.677 Y140.737 E.0169
G1 X98.422 Y145.482 E.21153
G1 X98.422 Y146.018 E.0169
G1 X93.677 Y141.273 E.21153
G1 X93.677 Y141.81 E.0169
G1 X98.422 Y146.554 E.21153
G1 X98.422 Y147.09 E.0169
G1 X93.677 Y142.346 E.21153
G1 X93.677 Y142.882 E.0169
G1 X98.422 Y147.626 E.21153
G1 X98.421 Y148.163 E.0169
G1 X93.677 Y143.418 E.21153
G1 X93.677 Y143.954 E.0169
G1 X98.421 Y148.699 E.21152
G1 X98.421 Y149.235 E.0169
G1 X93.677 Y144.491 E.21152
G1 X93.677 Y145.027 E.0169
G1 X98.421 Y149.771 E.21152
G1 X98.421 Y150.307 E.0169
G1 X93.677 Y145.563 E.21152
G1 X93.677 Y146.099 E.0169
G1 X98.421 Y150.843 E.21152
G1 X98.421 Y151.379 E.0169
G1 X93.677 Y146.635 E.21152
G1 X93.677 Y147.172 E.0169
G1 X98.421 Y151.916 E.21151
G1 X98.421 Y152.452 E.0169
G1 X93.677 Y147.708 E.21151
G1 X93.677 Y148.244 E.0169
G1 X98.421 Y152.988 E.21151
G1 X98.421 Y153.524 E.0169
G1 X93.677 Y148.78 E.21151
G1 X93.677 Y149.316 E.0169
G1 X98.421 Y154.06 E.21151
G1 X98.421 Y154.596 E.0169
G1 X93.677 Y149.853 E.21151
G1 X93.677 Y150.389 E.0169
G1 X98.421 Y155.133 E.2115
G1 X98.421 Y155.669 E.0169
G1 X93.677 Y150.925 E.2115
G1 X93.677 Y151.461 E.0169
G1 X98.421 Y156.205 E.2115
G1 X98.421 Y156.741 E.0169
G1 X93.677 Y151.997 E.2115
G1 X93.677 Y152.534 E.0169
G1 X98.421 Y157.277 E.2115
G1 X98.421 Y157.813 E.0169
G1 X93.677 Y153.07 E.2115
G1 X93.677 Y153.606 E.0169
G1 X98.421 Y158.35 E.2115
G1 X98.421 Y158.886 E.0169
G1 X93.677 Y154.142 E.21149
G1 X93.677 Y154.678 E.0169
G1 X98.421 Y159.422 E.21149
G1 X98.421 Y159.958 E.0169
G1 X93.677 Y155.215 E.21149
G1 X93.677 Y155.751 E.0169
G1 X98.421 Y160.494 E.21149
G1 X98.421 Y161.03 E.0169
G1 X93.677 Y156.287 E.21149
G1 X93.677 Y156.823 E.0169
G1 X98.421 Y161.567 E.21149
G1 X98.421 Y162.103 E.0169
G1 X93.677 Y157.359 E.21148
G1 X93.677 Y157.896 E.0169
G1 X98.42 Y162.639 E.21148
G1 X98.42 Y163.175 E.0169
G1 X93.677 Y158.432 E.21148
G1 X93.677 Y158.968 E.0169
G1 X98.42 Y163.711 E.21148
G1 X98.42 Y164.247 E.0169
M73 P1 R132
M73 Q1 S133
G1 X93.677 Y159.504 E.21148
G1 X93.677 Y159.741 E.00745
G1 X93.632 Y159.995 E.00816
G1 X98.136 Y164.499 E.20079
G1 X97.599 Y164.499 E.01691
G1 X93.427 Y160.326 E.18604
G1 X93.348 Y160.408 E.00357
G1 X93.103 Y160.538 E.00876
G1 X97.063 Y164.499 E.17656
G1 X96.527 Y164.498 E.01691
G1 X92.687 Y160.659 E.17118
G1 X92.556 Y160.681 E.00421
G1 X92.173 Y160.681 E.01206
G1 X95.99 Y164.498 E.17018
G1 X95.454 Y164.498 E.01691
G1 X91.637 Y160.681 E.17017
G1 X91.101 Y160.681 E.0169
G1 X94.918 Y164.498 E.17017
G1 X94.381 Y164.498 E.01691
G1 X90.565 Y160.681 E.17016
G1 X90.028 Y160.681 E.0169
G1 X93.845 Y164.498 E.17015
G1 X93.308 Y164.498 E.01691
G1 X89.492 Y160.681 E.17015
G1 X88.956 Y160.681 E.0169
G1 X92.772 Y164.497 E.17014
G1 X92.236 Y164.497 E.01691
G1 X88.42 Y160.681 E.17013
G1 X87.884 Y160.681 E.0169
G1 X91.699 Y164.497 E.17013
G1 X91.163 Y164.497 E.01691
G1 X87.347 Y160.681 E.17012
G1 X86.811 Y160.681 E.0169
G1 X90.627 Y164.497 E.17011
G1 X90.09 Y164.497 E.01691
G1 X86.275 Y160.681 E.17011
G1 X85.739 Y160.681 E.0169
G1 X89.554 Y164.496 E.1701
G1 X89.018 Y164.496 E.01691
G1 X85.203 Y160.681 E.17009
G1 X84.666 Y160.681 E.0169
G1 X88.481 Y164.496 E.17009
G1 X87.945 Y164.496 E.01691
G1 X84.13 Y160.681 E.17008
G1 X83.594 Y160.681 E.0169
G1 X87.409 Y164.496 E.17007
G1 X86.872 Y164.496 E.01691
G1 X83.058 Y160.681 E.17007
G1 X82.522 Y160.681 E.0169
G1 X86.336 Y164.496 E.17006
G1 X85.8 Y164.495 E.01691
G1 X81.985 Y160.681 E.17005
G1 X81.449 Y160.681 E.0169
G1 X85.263 Y164.495 E.17005
G1 X84.727 Y164.495 E.01691
G1 X80.913 Y160.681 E.17004
G1 X80.377 Y160.681 E.0169
G1 X84.191 Y164.495 E.17003
G1 X83.654 Y164.495 E.01691
G1 X79.841 Y160.681 E.17003
G1 X79.304 Y160.681 E.0169
G1 X83.118 Y164.495 E.17002
G1 X82.581 Y164.495 E.01691
G1 X78.768 Y160.681 E.17001
G1 X78.232 Y160.681 E.0169
G1 X82.045 Y164.494 E.17001
G1 X81.509 Y164.494 E.01691
G1 X77.696 Y160.681 E.17
G1 X77.16 Y160.681 E.0169
G1 X80.972 Y164.494 E.16999
G1 X80.436 Y164.494 E.01691
G1 X76.623 Y160.681 E.16999
G1 X76.087 Y160.681 E.0169
G1 X79.9 Y164.494 E.16998
G1 X79.363 Y164.494 E.01691
G1 X75.551 Y160.681 E.16997
G1 X75.015 Y160.681 E.0169
G1 X78.827 Y164.493 E.16997
G1 X78.291 Y164.493 E.01691
G1 X74.479 Y160.681 E.16996
G1 X73.942 Y160.681 E.0169
G1 X77.754 Y164.493 E.16995
G1 X77.218 Y164.493 E.01691
G1 X73.406 Y160.681 E.16995
G1 X72.87 Y160.681 E.0169
G1 X76.682 Y164.493 E.16994
G1 X76.145 Y164.493 E.01691
G1 X72.334 Y160.681 E.16993
G1 X71.798 Y160.681 E.0169
G1 X75.609 Y164.493 E.16993
G1 X75.073 Y164.492 E.01691
G1 X71.261 Y160.681 E.16992
G1 X70.725 Y160.681 E.0169
G1 X74.706 Y164.662 E.17748
M204 S1000
;WIPE_START
G1 F8640
G1 X72.379 Y162.335 E-.76
;WIPE_END
G1 E-.04 F2100
G1 Z.6 F720
G1 X92.21 Y136.589 F10800
G1 Z.2 F720
G1 E.8 F2100
M204 S800
G1 F1200
G1 X87.296 Y131.675 E.21908
G1 X86.76 Y131.675 E.0169
G1 X91.504 Y136.42 E.21152
G1 X90.968 Y136.42 E.0169
G1 X86.224 Y131.675 E.21152
G1 X85.688 Y131.675 E.0169
G1 X90.432 Y136.42 E.21152
G1 X89.896 Y136.42 E.0169
M73 Q1 S132
G1 X85.152 Y131.675 E.21152
G1 X84.615 Y131.675 E.0169
G1 X89.36 Y136.42 E.21152
G1 X88.823 Y136.42 E.0169
G1 X84.079 Y131.675 E.21152
G1 X83.543 Y131.675 E.0169
G1 X88.287 Y136.42 E.21152
G1 X87.751 Y136.42 E.0169
G1 X83.007 Y131.675 E.21152
G1 X82.471 Y131.675 E.0169
G1 X87.215 Y136.42 E.21152
G1 X86.679 Y136.42 E.0169
G1 X81.934 Y131.675 E.21152
G1 X81.398 Y131.675 E.0169
G1 X86.142 Y136.42 E.21152
G1 X85.606 Y136.42 E.0169
G1 X80.862 Y131.675 E.21152
G1 X80.326 Y131.675 E.0169
G1 X85.07 Y136.42 E.21152
G1 X84.534 Y136.42 E.0169
G1 X79.79 Y131.675 E.21152
G1 X79.253 Y131.675 E.0169
G1 X83.998 Y136.42 E.21152
G1 X83.461 Y136.42 E.0169
G1 X78.717 Y131.675 E.21152
G1 X78.181 Y131.675 E.0169
G1 X82.925 Y136.42 E.21152
G1 X82.389 Y136.42 E.0169
G1 X77.645 Y131.675 E.21152
G1 X77.109 Y131.675 E.0169
G1 X81.853 Y136.42 E.21152
G1 X81.317 Y136.42 E.0169
G1 X76.572 Y131.675 E.21152
G1 X76.036 Y131.675 E.0169
G1 X80.78 Y136.42 E.21152
G1 X80.244 Y136.42 E.0169
G1 X75.5 Y131.675 E.21152
G1 X74.964 Y131.675 E.0169
G1 X79.708 Y136.42 E.21152
G1 X79.172 Y136.42 E.0169
G1 X74.428 Y131.675 E.21152
G1 X73.891 Y131.675 E.0169
G1 X78.636 Y136.42 E.21152
G1 X78.099 Y136.42 E.0169
G1 X73.355 Y131.675 E.21152
G1 X72.819 Y131.675 E.0169
G1 X77.563 Y136.42 E.21152
G1 X77.027 Y136.42 E.0169
G1 X72.283 Y131.675 E.21152
G1 X71.747 Y131.675 E.0169
G1 X76.491 Y136.42 E.21152
G1 X75.955 Y136.42 E.0169
G1 X71.21 Y131.675 E.21152
G1 X70.674 Y131.675 E.0169
G1 X75.418 Y136.42 E.21152
G1 X74.882 Y136.42 E.0169
G1 X70.138 Y131.675 E.21152
G1 X69.602 Y131.675 E.0169
M73 P1 R131
G1 X74.346 Y136.42 E.21152
G1 X73.81 Y136.42 E.0169
G1 X69.066 Y131.675 E.21152
G1 X68.529 Y131.675 E.0169
G1 X73.274 Y136.42 E.21152
G1 X72.737 Y136.42 E.0169
G1 X67.993 Y131.675 E.21152
G1 X67.457 Y131.675 E.0169
G1 X72.201 Y136.42 E.21152
G1 X71.665 Y136.42 E.0169
G1 X66.921 Y131.675 E.21152
G1 X66.385 Y131.675 E.0169
G1 X71.129 Y136.42 E.21152
G1 X70.593 Y136.42 E.0169
G1 X65.848 Y131.675 E.21152
G1 X65.641 Y131.689 E.00657
G1 X65.637 Y131.814 E.00393
G1 X65.599 Y131.962 E.00483
G1 X70.101 Y136.465 E.20074
G1 X69.867 Y136.578 E.00821
G1 X69.771 Y136.67 E.0042
G1 X65.599 Y132.499 E.18599
G1 X65.599 Y133.035 E.01691
G1 X69.559 Y136.994 E.17652
G1 X69.46 Y137.284 E.00966
G1 X69.439 Y137.411 E.00404
G1 X65.6 Y133.571 E.17117
G1 X65.6 Y134.108 E.01691
G1 X69.417 Y137.925 E.17018
G1 X69.417 Y138.461 E.0169
G1 X65.6 Y134.644 E.17017
G1 X65.6 Y135.18 E.01691
G1 X69.417 Y138.997 E.17017
G1 X69.417 Y139.533 E.0169
G1 X65.6 Y135.717 E.17016
G1 X65.6 Y136.253 E.01691
G1 X69.417 Y140.07 E.17015
G1 X69.417 Y140.606 E.0169
G1 X65.6 Y136.79 E.17015
G1 X65.601 Y137.326 E.01691
G1 X69.417 Y141.142 E.17014
G1 X69.417 Y141.678 E.0169
G1 X65.601 Y137.862 E.17013
G1 X65.601 Y138.399 E.01691
G1 X69.417 Y142.214 E.17013
G1 X69.417 Y142.751 E.0169
G1 X65.601 Y138.935 E.17012
G1 X65.601 Y139.471 E.01691
G1 X69.417 Y143.287 E.17011
G1 X69.417 Y143.823 E.0169
G1 X65.601 Y140.008 E.17011
G1 X65.602 Y140.544 E.01691
G1 X69.417 Y144.359 E.1701
G1 X69.417 Y144.895 E.0169
G1 X65.602 Y141.08 E.17009
G1 X65.602 Y141.617 E.01691
G1 X69.417 Y145.432 E.17009
G1 X69.417 Y145.968 E.0169
G1 X65.602 Y142.153 E.17008
G1 X65.602 Y142.689 E.01691
G1 X69.417 Y146.504 E.17007
G1 X69.417 Y147.04 E.0169
G1 X65.602 Y143.226 E.17007
G1 X65.602 Y143.762 E.01691
G1 X69.417 Y147.576 E.17006
G1 X69.417 Y148.113 E.0169
G1 X65.603 Y144.298 E.17005
G1 X65.603 Y144.835 E.01691
G1 X69.417 Y148.649 E.17005
G1 X69.417 Y149.185 E.0169
G1 X65.603 Y145.371 E.17004
G1 X65.603 Y145.907 E.01691
G1 X69.417 Y149.721 E.17003
G1 X69.417 Y150.257 E.0169
G1 X65.603 Y146.444 E.17003
G1 X65.603 Y146.98 E.01691
G1 X69.417 Y150.794 E.17002
G1 X69.417 Y151.33 E.0169
G1 X65.603 Y147.517 E.17001
G1 X65.604 Y148.053 E.01691
G1 X69.417 Y151.866 E.17001
G1 X69.417 Y152.402 E.0169
G1 X65.604 Y148.589 E.17
G1 X65.604 Y149.126 E.01691
G1 X69.417 Y152.938 E.16999
G1 X69.417 Y153.475 E.0169
G1 X65.604 Y149.662 E.16999
G1 X65.604 Y150.198 E.01691
G1 X69.417 Y154.011 E.16998
G1 X69.417 Y154.547 E.0169
G1 X65.604 Y150.735 E.16997
G1 X65.605 Y151.271 E.01691
G1 X69.417 Y155.083 E.16997
G1 X69.417 Y155.619 E.0169
G1 X65.605 Y151.807 E.16996
G1 X65.605 Y152.344 E.01691
G1 X69.417 Y156.156 E.16995
